X:1438
T:Bill Cheethams
S:Wendy Stewart
R:Reel
O:USA
M:4/4
K:A
EF AB c2AB|cA Bc BA FE|F2d2 d2AB|=cA Bc BA FD|\
E2c2 c2AB|cA Bc BA FE|dc de fg af|ec AB A2::\
cd|\
ec ea fd fa|ge gb a2 (3efg|\
ag ae =gf ec|ef ec B2cd|\
ec ea fd fa|ge gb a2 (3efg|\
ag ae =gf ec|ec Bc A2:|


